svgs/sharp-regular/folder.svg

<svg xmlns="http://www.w3.org/2000/svg" viewBox="0 0 512 512"><!--! Font Awesome Pro 6.6.0 by @fontawesome - https://fontawesome.com License - https://fontawesome.com/license (Commercial License) Copyright 2024 Fonticons, Inc. --><path d="M272 96L224 32 48 32 0 32 0 80 0 432l0 48 48 0 416 0 48 0 0-48 0-288 0-48-48 0L272 96zm192 48l0 288L48 432 48 80l152 0 33.6 44.8L248 144l24 0 192 0z"/></svg>

<svg xmlns="http://www.w3.org/2000/svg" viewBox="0 0 512 512"><!--! Font Awesome Pro 6.4.2 by @fontawesome - https://fontawesome.com License - https://fontawesome.com/license (Commercial License) Copyright 2023 Fonticons, Inc. --><path d="M272 96L224 32H48 0V80 432v48H48 464h48V432 144 96H464 272zm192 48V432H48V80H200l33.6 44.8L248 144h24H464z"/></svg>
